2. Evclid/img/ficher-1.svg

<svg fill="none" height="137" viewBox="0 0 178 137" width="178" xmlns="http://www.w3.org/2000/svg"><circle cx="60" cy="77" fill="#f90" r="60"/><g clip-rule="evenodd" fill="#000" fill-rule="evenodd"><path d="m89.1306 15.4903c.269-.4686.8654-.6294 1.3319-.3592l57.0495 33.0409c.466.2702.626.8691.357 1.3377s-.865.6294-1.332.3592l-57.0488-33.0409c-.4666-.2702-.6267-.8691-.3576-1.3377z"/><path d="m111.502 1.87485c2.128-1.228243 4.541-1.87485 6.998-1.87485s4.87.646607 6.998 1.87485c.001.00039.001.00078.002.00117l45.5 26.00528c2.126 1.2278 3.892 2.9932 5.121 5.1191 1.228 2.126 1.876 4.5377 1.879 6.9933v52.0126c-.003 2.4556-.651 4.8673-1.879 6.9932-1.229 2.1265-2.995 3.8915-5.121 5.1195l-.004.002-45.496 26.003s-.001 0-.001.001c-2.128 1.228-4.542 1.875-6.999 1.875s-4.871-.647-6.999-1.875c0-.001-.001-.001-.001-.001l-45.4961-26.003-.0039-.002c-2.1262-1.228-3.8921-2.993-5.1208-5.1195-1.2286-2.1259-1.8767-4.5376-1.8792-6.9932v-52.0126c.0025-2.4556.6506-4.8673 1.8792-6.9933 1.2287-2.1259 2.9946-3.8913 5.1208-5.1191l.0039-.0022 45.4961-26.00308c.001-.00039.001-.00078.002-.00117zm6.998.12555c-2.106 0-4.176.55459-6 1.60802l-.004.00222-45.496 26.00306c-.0007.0004-.0014.0008-.002.0011-1.8215 1.0524-3.3345 2.5652-4.3872 4.3867-1.0531 1.8221-1.6086 3.8892-1.6108 5.9938v52.0094c.0022 2.1046.5577 4.1716 1.6108 5.9938 1.0526 1.8214 2.5655 3.3345 4.3869 4.3865.0007 0 .0015.001.0023.001l45.5 26.006c1.824 1.053 3.894 1.608 6 1.608s4.176-.555 6-1.608l.004-.003 45.496-26.003c.001 0 .002-.001.002-.001 1.822-1.052 3.335-2.5651 4.387-4.3865 1.053-1.8223 1.609-3.8895 1.611-5.9943v-52.0084c-.002-2.1048-.558-4.172-1.611-5.9943-1.052-1.8215-2.565-3.3343-4.387-4.3867-.001-.0003-.001-.0007-.002-.0011l-45.496-26.00306-.004-.00222c-1.824-1.05343-3.894-1.60802-6-1.60802z"/><path d="m61.1328 33.4876c.273-.4667.8768-.6262 1.3487-.3562l55.5185 31.7644 55.518-31.7644c.472-.27 1.076-.1105 1.349.3562s.112 1.064-.36 1.334l-56.013 32.0472c-.306.1749-.682.1749-.988 0l-56.013-32.0472c-.4719-.27-.6332-.8673-.3602-1.334z"/><path d="m118 65c.552 0 1 .4376 1 .9775v64.0455c0 .539-.448.977-1 .977s-1-.438-1-.977v-64.0455c0-.5399.448-.9775 1-.9775z"/></g></svg>

<svg width="178" height="137" viewBox="0 0 178 137" fill="none" xmlns="http://www.w3.org/2000/svg">
<circle cx="60" cy="77" r="60" fill="#FF9900"/>
<path fill-rule="evenodd" clip-rule="evenodd" d="M89.1306 15.4903C89.3996 15.0217 89.996 14.8609 90.4625 15.1311L147.512 48.172C147.978 48.4422 148.138 49.0411 147.869 49.5097C147.6 49.9783 147.004 50.1391 146.537 49.8689L89.4882 16.828C89.0216 16.5578 88.8615 15.9589 89.1306 15.4903Z" fill="black"/>
<path fill-rule="evenodd" clip-rule="evenodd" d="M111.502 1.87485C113.63 0.646607 116.043 0 118.5 0C120.957 0 123.37 0.646607 125.498 1.87485C125.499 1.87524 125.499 1.87563 125.5 1.87602L171 27.8813C173.126 29.1091 174.892 30.8745 176.121 33.0004C177.349 35.1264 177.997 37.5381 178 39.9937V92.0063C177.997 94.4619 177.349 96.8736 176.121 98.9995C174.892 101.126 173.126 102.891 171 104.119L170.996 104.121L125.5 130.124C125.5 130.124 125.499 130.124 125.499 130.125C123.371 131.353 120.957 132 118.5 132C116.043 132 113.629 131.353 111.501 130.125C111.501 130.124 111.5 130.124 111.5 130.124L66.0039 104.121L66 104.119C63.8738 102.891 62.1079 101.126 60.8792 98.9995C59.6506 96.8736 59.0025 94.4619 59 92.0063V39.9937C59.0025 37.5381 59.6506 35.1264 60.8792 33.0004C62.1079 30.8745 63.8738 29.1091 66 27.8813L66.0039 27.8791L111.5 1.87602C111.501 1.87563 111.501 1.87524 111.502 1.87485ZM118.5 2.0004C116.394 2.0004 114.324 2.55499 112.5 3.60842L112.496 3.61064L67 29.6137C66.9993 29.6141 66.9986 29.6145 66.998 29.6148C65.1765 30.6672 63.6635 32.18 62.6108 34.0015C61.5577 35.8236 61.0022 37.8907 61 39.9953V92.0047C61.0022 94.1093 61.5577 96.1763 62.6108 97.9985C63.6634 99.8199 65.1763 101.333 66.9977 102.385C66.9984 102.385 66.9992 102.386 67 102.386L112.5 128.392C114.324 129.445 116.394 130 118.5 130C120.606 130 122.676 129.445 124.5 128.392L124.504 128.389L170 102.386C170.001 102.386 170.002 102.385 170.002 102.385C171.824 101.333 173.337 99.8199 174.389 97.9985C175.442 96.1762 175.998 94.109 176 92.0042V39.9958C175.998 37.891 175.442 35.8238 174.389 34.0015C173.337 32.18 171.824 30.6672 170.002 29.6148C170.001 29.6145 170.001 29.6141 170 29.6137L124.504 3.61064L124.5 3.60842C122.676 2.55499 120.606 2.0004 118.5 2.0004Z" fill="black"/>
<path fill-rule="evenodd" clip-rule="evenodd" d="M61.1328 33.4876C61.4058 33.0209 62.0096 32.8614 62.4815 33.1314L118 64.8958L173.518 33.1314C173.99 32.8614 174.594 33.0209 174.867 33.4876C175.14 33.9543 174.979 34.5516 174.507 34.8216L118.494 66.8688C118.188 67.0437 117.812 67.0437 117.506 66.8688L61.493 34.8216C61.0211 34.5516 60.8598 33.9543 61.1328 33.4876Z" fill="black"/>
<path fill-rule="evenodd" clip-rule="evenodd" d="M118 65C118.552 65 119 65.4376 119 65.9775V130.023C119 130.562 118.552 131 118 131C117.448 131 117 130.562 117 130.023V65.9775C117 65.4376 117.448 65 118 65Z" fill="black"/>
</svg>
